picto/aeroplane-seating.svg

<svg class="color-immutable" width="24" height="24" viewBox="0 0 24 24" fill="none" xmlns="http://www.w3.org/2000/svg"><g clip-path="url(#a)"><path d="M0 22.5v-21C0 .675.675 0 1.5 0h21c.825 0 1.5.675 1.5 1.5v21c0 .825-.675 1.5-1.5 1.5h-21C.675 24 0 23.325 0 22.5Z" fill="#2D327D"/><path d="M21 20.7H3v.3h18v-.3Z" fill="#fff"/><path fill-rule="evenodd" clip-rule="evenodd" d="M20.625 15.75h-3.809l-.771-2.475h3.568a.49.49 0 0 0 .488-.487.49.49 0 0 0-.488-.488h-3.871l-1.566-5.025h-1.35l2.467 9.525h.001c.113.39.473.675.9.675h4.432a.376.376 0 0 0 .375-.375v-.975a.378.378 0 0 0-.376-.375ZM15 5.925c.158-.166.15-.245.15-.397V3.375A.376.376 0 0 0 14.775 3H13.2a.376.376 0 0 0-.375.375v3.45h1.35l.825-.9ZM5.468 16.8c.113.39.473.675.9.675H10.8a.376.376 0 0 0 .375-.375v-.975a.376.376 0 0 0-.375-.375H6.991l-.771-2.475h3.568a.488.488 0 0 0 0-.975H5.916L4.35 7.275H3L5.468 16.8ZM5.175 5.925c.158-.166.15-.245.15-.397V3.375A.376.376 0 0 0 4.95 3H3.375A.376.376 0 0 0 3 3.375v3.45h1.35l.825-.9Z" fill="#fff"/></g><defs><clipPath id="a"><path fill="#fff" d="M0 0h24v24H0z"/></clipPath></defs></svg>

<svg class="color-immutable" width="24" height="24" viewBox="0 0 24 24" fill="none" xmlns="http://www.w3.org/2000/svg"><path d="M0 22.5V1.5C0 0.675 0.675 0 1.5 0H22.5C23.325 0 24 0.675 24 1.5V22.5C24 23.325 23.325 24 22.5 24H1.5C0.675 24 0 23.325 0 22.5Z" fill="#2D327D"/><path d="M21 20.7H3V21H21V20.7Z" fill="white"/><path fill-rule="evenodd" clip-rule="evenodd" d="M20.625 15.75H16.816L16.045 13.275H19.613C19.881 13.275 20.101 13.056 20.101 12.788C20.101 12.52 19.882 12.3 19.613 12.3H15.742L14.176 7.27502H12.826L15.293 16.8H15.294C15.407 17.19 15.767 17.475 16.194 17.475H20.626C20.832 17.475 21.001 17.306 21.001 17.1V16.125C21 15.919 20.831 15.75 20.625 15.75Z" fill="white"/><path fill-rule="evenodd" clip-rule="evenodd" d="M15 5.925C15.158 5.759 15.15 5.68 15.15 5.528V3.375C15.15 3.169 14.981 3 14.775 3H13.2C12.994 3 12.825 3.169 12.825 3.375V6.825H14.175L15 5.925Z" fill="white"/><path fill-rule="evenodd" clip-rule="evenodd" d="M5.468 16.8C5.581 17.19 5.941 17.475 6.368 17.475H10.8C11.006 17.475 11.175 17.306 11.175 17.1V16.125C11.175 15.919 11.006 15.75 10.8 15.75H6.991L6.22 13.275H9.788C10.056 13.275 10.275 13.056 10.275 12.788C10.275 12.52 10.056 12.3 9.788 12.3H5.916L4.35 7.27502H3L5.468 16.8Z" fill="white"/><path fill-rule="evenodd" clip-rule="evenodd" d="M5.175 5.925C5.333 5.759 5.325 5.68 5.325 5.528V3.375C5.325 3.169 5.156 3 4.95 3H3.375C3.169 3 3 3.169 3 3.375V6.825H4.35L5.175 5.925Z" fill="white"/></svg>
